dist/images/svg_sprite/logo.svg

<svg width="50" height="50" viewBox="0 0 50 50" fill="none" xmlns="http://www.w3.org/2000/svg">
<circle cx="25" cy="25" r="24.5" fill="#4054B2" stroke="white"/>
<path d="M40.3337 21.6077C39.1082 21.3888 37.9143 22.1093 37.6155 23.2482L36.3111 27.8212C35.4843 27.3312 34.423 27.3664 33.6344 27.9094C33.5769 27.9517 28.4483 31.0139 28.4483 31.0139C26.6029 32.0986 25.4844 34.0029 25.4903 36.0496V40.6355C25.4903 40.9342 25.7478 41.1764 26.0654 41.1764C26.383 41.1764 26.6406 40.9342 26.6406 40.6355V36.0496C26.6358 34.3753 27.5507 32.8173 29.0602 31.9296C29.0602 31.9296 34.2641 28.8225 34.2832 28.8074C34.7437 28.4448 35.4205 28.4656 35.855 28.8555C36.2917 29.2665 36.3052 29.9286 35.8856 30.3549L32.0615 32.8825C31.8014 33.0545 31.7388 33.392 31.9213 33.6363C32.1039 33.8809 32.4628 33.9398 32.7228 33.7681L36.5908 31.2106C36.6177 31.1927 36.6433 31.1726 36.6666 31.1507C37.2945 30.5559 37.5009 29.674 37.1962 28.8864L38.7251 23.5284C38.8728 22.9503 39.4676 22.5752 40.0928 22.6663C40.6224 22.773 41.0021 23.2115 41.006 23.721C41.0069 23.8163 40.9942 23.9109 40.9681 24.0028L38.8975 31.2804C38.8189 31.5559 38.6647 31.8068 38.4507 32.0086L34.1464 36.0567C33.389 36.7654 32.9644 37.7294 32.9672 38.7344V40.6355C32.9672 40.9342 33.2247 41.1764 33.5423 41.1764C33.8599 41.1764 34.1175 40.9342 34.1175 40.6355V38.7344C34.1158 38.0165 34.4191 37.3279 34.9602 36.8216L39.2646 32.7734C39.6215 32.4375 39.8782 32.0194 40.0088 31.5606L42.0794 24.2841C42.1316 24.1005 42.1577 23.9111 42.1569 23.721C42.1513 22.7017 41.3933 21.8227 40.3337 21.6077Z" fill="white"/>
<path d="M21.3785 31.014C21.3785 31.014 15.9926 27.9849 15.9536 27.9556C15.1166 27.3698 13.9547 27.3161 13.0537 27.8214L11.672 23.2485C11.3569 22.1091 10.0926 21.3881 8.79473 21.6081C8.14149 21.7317 7.57358 22.0877 7.22392 22.5932C6.87455 23.099 6.77346 23.7099 6.94502 24.2833L9.13697 31.5608C9.27523 32.0195 9.54699 32.4376 9.9252 32.7736L14.4824 36.8217C15.056 37.3277 15.3777 38.0163 15.3762 38.7344V40.6355C15.3762 40.9343 15.6489 41.1764 15.9852 41.1764C16.3214 41.1764 16.5941 40.9343 16.5941 40.6355V38.7344C16.5971 37.7295 16.1475 36.7654 15.3453 36.0568L10.7881 32.0087C10.5612 31.8069 10.398 31.556 10.3147 31.2805L8.12246 24.0015C8.0954 23.9101 8.08202 23.8158 8.08292 23.7213C8.08678 23.2118 8.48907 22.7731 9.05014 22.6666C9.71231 22.5723 10.3441 22.9487 10.4976 23.5287L12.1165 28.8866C11.7942 29.6742 12.0128 30.5561 12.6773 31.1509C12.7023 31.1728 12.7291 31.1928 12.7579 31.2108L16.8531 33.7661C17.1281 33.9378 17.5081 33.8789 17.7014 33.6343C17.8949 33.3898 17.8286 33.0525 17.5533 32.8805L13.5045 30.353C13.0603 29.9264 13.0743 29.2645 13.5366 28.8536C13.9856 28.4735 14.6802 28.4429 15.1693 28.7815C15.2002 28.8036 20.7306 31.9276 20.7306 31.9276C22.3297 32.8156 23.2987 34.3747 23.2924 36.0497V40.6355C23.2924 40.9343 23.5651 41.1764 23.9014 41.1764C24.2377 41.1764 24.5103 40.9343 24.5103 40.6355V36.0497C24.5169 34.003 23.3326 32.0988 21.3785 31.014Z" fill="white"/>
<path d="M34.1903 26.2522C34.3879 26.161 34.5126 25.9764 34.5126 25.7746V16.847L39.8145 15.0312C40.0438 14.9528 40.1958 14.753 40.1958 14.53C40.1958 14.307 40.0438 14.1075 39.8145 14.0288L24.7171 8.85806C24.5832 8.81204 24.4355 8.81204 24.3016 8.85806L9.20451 14.0288C8.97495 14.1075 8.82324 14.307 8.82324 14.53C8.82324 14.753 8.97495 14.9528 9.20451 15.0312L12.1725 16.0488C12.1627 16.0773 12.1561 16.1068 12.1524 16.1364V21.4909C12.1524 21.7866 12.4159 22.0264 12.7408 22.0264C13.0658 22.0264 13.3293 21.7866 13.3293 21.4909V16.4438L14.5061 16.847V25.7746C14.5061 25.9764 14.6308 26.161 14.8288 26.2522L15.2994 26.4664C21.1049 29.0864 27.9221 29.0864 33.7277 26.4664L34.1903 26.2522ZM24.5094 9.93106L37.936 14.53L24.5094 19.1292L11.0827 14.53L24.5094 9.93106ZM33.197 25.5129C27.7242 27.981 21.2983 27.981 15.8255 25.5129L15.683 25.4459V17.2502L24.3016 20.2022C24.4355 20.248 24.5832 20.248 24.7171 20.2022L33.3358 17.2502V25.4459L33.197 25.5129Z" fill="white"/>
</svg>

<svg width="50" height="50" fill="none" xmlns="http://www.w3.org/2000/svg"><circle cx="25" cy="25" r="24.5" fill="#4054B2" stroke="#fff"/><path d="M40.334 21.608c-1.226-.22-2.42.501-2.719 1.64l-1.304 4.573a2.507 2.507 0 0 0-2.677.088c-.057.043-5.186 3.105-5.186 3.105-1.845 1.085-2.964 2.989-2.958 5.036v4.586c0 .298.258.54.575.54.318 0 .576-.242.576-.54V36.05c-.005-1.675.91-3.233 2.42-4.12 0 0 5.203-3.107 5.222-3.123a1.236 1.236 0 0 1 1.572.049c.437.41.45 1.073.03 1.499l-3.823 2.527a.521.521 0 0 0-.14.754.599.599 0 0 0 .8.132l3.869-2.557a.58.58 0 0 0 .076-.06c.627-.595.834-1.477.53-2.265l1.528-5.358c.148-.578.743-.953 1.368-.862.53.107.91.546.913 1.055 0 .095-.012.19-.038.282l-2.07 7.277a1.61 1.61 0 0 1-.447.729l-4.305 4.048a3.653 3.653 0 0 0-1.179 2.677v1.901c0 .3.258.541.575.541.318 0 .575-.242.575-.54v-1.902a2.611 2.611 0 0 1 .843-1.912l4.305-4.049c.356-.336.613-.754.744-1.212l2.07-7.277c.053-.183.079-.373.078-.563-.006-1.02-.764-1.898-1.823-2.113zm-18.956 9.406s-5.385-3.03-5.424-3.058c-.837-.586-2-.64-2.9-.135l-1.382-4.573c-.315-1.139-1.58-1.86-2.877-1.64-.654.124-1.221.48-1.571.985a1.961 1.961 0 0 0-.279 1.69l2.192 7.278c.138.459.41.877.788 1.213l4.557 4.048c.574.506.896 1.194.894 1.912v1.901c0 .3.273.541.61.541.335 0 .608-.242.608-.54v-1.902c.003-1.005-.447-1.969-1.249-2.677l-4.557-4.048a1.596 1.596 0 0 1-.473-.729l-2.193-7.279a.955.955 0 0 1-.04-.28c.005-.51.407-.948.968-1.054.662-.095 1.294.282 1.448.862l1.619 5.358c-.323.787-.104 1.67.56 2.264a.624.624 0 0 0 .08.06l4.096 2.555c.275.172.655.113.848-.132.194-.244.128-.581-.148-.754l-4.049-2.527a.997.997 0 0 1 .033-1.5 1.372 1.372 0 0 1 1.632-.072c.031.023 5.562 3.147 5.562 3.147 1.599.888 2.568 2.447 2.561 4.122v4.586c0 .298.273.54.61.54.336 0 .608-.242.608-.54V36.05c.007-2.047-1.177-3.951-3.132-5.036z" fill="#fff"/><path d="M34.19 26.252a.532.532 0 0 0 .323-.477v-8.928l5.302-1.816a.54.54 0 0 0 .38-.501.54.54 0 0 0-.38-.501l-15.098-5.17a.642.642 0 0 0-.415 0l-15.097 5.17a.54.54 0 0 0-.382.501.54.54 0 0 0 .382.501l2.967 1.018a.436.436 0 0 0-.02.087v5.355c0 .296.264.535.589.535.325 0 .588-.24.588-.535v-5.047l1.177.403v8.928c0 .201.125.386.323.477l.47.214c5.806 2.62 12.623 2.62 18.429 0l.462-.214zm-9.68-16.32l13.426 4.598-13.427 4.6-13.426-4.6 13.426-4.599zm8.687 15.58c-5.473 2.469-11.899 2.469-17.372 0l-.142-.066V17.25l8.619 2.952a.645.645 0 0 0 .415 0l8.619-2.952v8.196l-.139.067z" fill="#fff"/></svg>
